!!!COM: Haydn, Franz Joseph
!!!OTL: String Quartet in G major
!!!OPS: Opus 09
!!!ONM: No. 3
!!!OMD: Presto
!!!OMV: 4
!!!SCT: H /disk/dos2/musedata_2000/haydn/traut/quart/op09n3/stage1/04
!!!SCA: Thematisch-bibliographisches Werkevererzeichnis (A. van Hoboken)
!!!YOR: Trautwein Edition
!!!ENC: Frances Bennion
!!!CDT: 1732/3/31/-1809/5/31/
!!!CNT: Oesterreich
!!!YEC: Copyright (c) 1994, 2000 Center for Computer Assisted Research in the Humanities
!!!YEM: Rights to all derivative editions reserved.
!!!YEM: Refer to licensing agreement for further details.
!!!YEN: United States of America
**kern	**kern	**kern	**kern
*k[f#]	*k[f#]	*k[f#]	*k[f#]
*G:	*G:	*G:	*G:
*clefF4	*clefC3	*clefG	*clefG
*M2/4	*M2/4	*M2/4	*M2/4
*MM144	*MM144	*MM144	*MM144
4.r	4.r	4.r	4.r
8r	8r	16g	16b
.	.	16a	16cc
=1	=1	=1	=1
2r	2r	8b	8dd
.	.	8g	8b
.	.	8a	8cc
.	.	8b	8dd
=2	=2	=2	=2
4r	4r	4cc	4ee
4GG	4G	8r	8r
.	.	16f#	16a
.	.	16g	16b
=3	=3	=3	=3
2r	2r	8a	8cc
.	.	8f#	8a
.	.	8g	8b
.	.	8a	8cc
=4	=4	=4	=4
2r	2r	4b	4dd
.	.	4r	8r
.	.	.	8d
=5	=5	=5	=5
8G	8B	8d	8g
8G	8B	8d	8g
8G	8B	8d	8g
8G	8B	8d	8g
=6	=6	=6	=6
2A	2c	2d	8.f#
.	.	.	16g
.	.	.	8f#
.	.	.	8d
=7	=7	=7	=7
8B	8d	8d	8g
8F#	8d	8d	8a
8G	8d	8d	8b
8C	8e	8a	8cc
=8	=8	=8	=8
2D	2d	4g	4b
.	.	8f#	8a
.	.	8d	8d
=9	=9	=9	=9
8GG	8B	8d	8g
8G	8B	8d	8g
8G	8B	8d	8g
8G	8B	8d	8g
=10	=10	=10	=10
2A	2c	2d	8.f#
.	.	.	16g
.	.	.	8f#
.	.	.	8d
=11	=11	=11	=11
8B	8B	8d	8g
8F#	8f#	8d	8a
8G	8g	8d	8b
8E	8e	8g	8cc#
=12	=12	=12	=12
4D	4d	4f#	4dd
4r	4r	4r	8r
.	.	.	8aa
=13	=13	=13	=13
2r	2r	2r	8gg#
.	.	.	8aa
.	.	.	8ff#
.	.	.	8dd
=14	=14	=14	=14
4A	4e	4g	4cc#
8d	8f#	8f#	8dd
8r	8r	8r	8bb
=15	=15	=15	=15
2r	2r	2r	8aa#
.	.	.	8bb
.	.	.	8gg
.	.	.	8ee
=16	=16	=16	=16
4BB	4f#	4a	4dd#
8E	8g	8g	8ee
8r	8r	8r	8gg
=17	=17	=17	=17
2r	2r	2r	8ff#
.	.	.	8gg
.	.	.	8ee
.	.	.	8cc#
=18	=18	=18	=18
2r	4.A	4.c#	8a
.	.	.	8gg
.	.	.	[4a
.	8B	8d	.
=19	=19	=19	=19
2r	8c#	8e	8a]
.	8d	8f	8b-
.	8c#	8e	8a
.	8B	8d	8g#
=20	=20	=20	=20
2r	4.A	4.c#	8a
.	.	.	8gg
.	.	.	[4a
.	8B	8d	.
=21	=21	=21	=21
2r	8c#	8e	8a]
.	8d	8f	8b-
.	8c#	8e	8a
.	8B	8d	8g#
=22	=22	=22	=22
2r	16c#	16e	16a
.	16d	16f	16b-
.	16c#	16e	16a
.	16B	16d	16g#
.	16c#	16e	16a
.	16d	16f	16b-
.	16c#	16e	16a
.	16B	16d	16g#
=23	=23	=23	=23
2r	16c#	16e	16a
.	16d	16f	16b-
.	16c#	16e	16a
.	16B	16d	16g#
.	16c#	16e	16a
.	16d	16f	16b-
.	16c#	16e	16a
.	16B	16d	16g#
=24	=24	=24	=24
2r	[2c#	[2e	4a
.	.	.	[4b-
=25	=25	=25	=25
2r	2c#_	2e_	4b-]
.	.	.	4a
=26	=26	=26	=26
16A	2c#_	2e_	[2g
16B-	.	.	.
16A	.	.	.
16G#	.	.	.
16A	.	.	.
16B-	.	.	.
16A	.	.	.
16G#	.	.	.
=27	=27	=27	=27
16A	2c#_	2e_	2g_
16B-	.	.	.
16A	.	.	.
16G#	.	.	.
16A	.	.	.
16B-	.	.	.
16A	.	.	.
16G#	.	.	.
=28	=28	=28	=28
4A	2c#_	2e_	2g_
[4B-	.	.	.
=29	=29	=29	=29
4B-]	4c#]	4e]	4g]
4G	4c#	4c#	4b-
=30	=30	=30	=30
4F#	4d	4d	4a
8r	8r	8r	8r
8d	8f#	8a	8dd
=31	=31	=31	=31
8d	8f#	8a	8dd
8d	8f#	8a	8dd
8d	8f#	8a	8dd
8d	8f#	8a	8dd
=32	=32	=32	=32
2e	2g	2a	8.cc#
.	.	.	16dd
.	.	.	8cc#
.	.	.	8a
=33	=33	=33	=33
8d	8f#	8a	8dd
8d	8f#	8a	8dd
8d	8f#	8a	8dd
8d	8f#	8a	8dd
=34	=34	=34	=34
4c#	4A	4ee	32ee
.	.	.	32ff#
.	.	.	8.gg
8r	8r	8r	8r
8d	8d	8a	8ff#
=35	=35	=35	=35
4G	4G	4g	4ee
4A	4A	8f#	8dd
.	.	8e	8cc#
=36	=36	=36	=36
4D	4d	4f#	4dd
4r	4r	4r	8r
.	.	.	8ddd
=37	=37	=37	=37
2r	4r	4r	8ccc#
.	.	.	8ddd
.	[4dd	4ff#	8bb
.	.	.	8aa
=38	=38	=38	=38
2r	8dd]	4ee	4gg#
.	8b	.	.
.	8cc	8ee	8aa
.	8r	8r	8ccc
=39	=39	=39	=39
2r	4r	4r	8bb
.	.	.	8ccc
.	[4cc	4ee	8aa
.	.	.	8gg
=40	=40	=40	=40
2r	8cc]	4dd	4ff#
.	8a	.	.
.	8b	8dd	8gg
.	8r	8r	8bb
=41	=41	=41	=41
4r	4r	4r	8aa#
.	.	.	8bb
[4G	4g	4b	8gg
.	.	.	8ee
=42	=42	=42	=42
8G]	4e	4.a	4cc#
8E	.	.	.
4F#	4d	.	8dd
.	.	[8ff#	[8aa
=43	=43	=43	=43
4G	4g	8ff#]	8aa]
.	.	8ee	8gg
4A	4a	8dd	8ff#
.	.	8cc#	8ee
=44	=44	=44	=44
4D	4d	4dd	4dd
8r	4D	4r	4r
8d	.	.	.
=45	=45	=45	=45
8c#	4r	4r	4r
8d	.	.	.
8B	[4B	[4dd	4ff#
8A	.	.	.
=46	=46	=46	=46
4G#	4B]	8dd]	4ee
.	.	8b	.
8A	8A	8cc	8ee
8c	8r	8r	8r
=47	=47	=47	=47
8B	4r	4r	4r
8c	.	.	.
8A	[4A	[4cc	4ee
8G	.	.	.
=48	=48	=48	=48
4F#	4A]	8cc]	4dd
.	.	8a	.
8G	8G	8b	8dd
8B	8r	8r	8r
=49	=49	=49	=49
8A#	4r	4r	4r
8B	.	.	.
8G	4G	[4g	[4b
8E	.	.	.
=50	=50	=50	=50
4C#	4c#	8g]	8b]
.	.	4gg	4bb
4D	4d	.	.
.	.	[8ff#	[8aa
=51	=51	=51	=51
4GG	4G	8ff#]	8aa]
.	.	8ee	8gg
4AA	4A	8dd	8ff#
.	.	8cc#	8ee
=52	=52	=52	=52
[2BB	2F#	[2dd	16dd
.	.	.	16ee
.	.	.	16ff#
.	.	.	16ee
.	.	.	16dd
.	.	.	16cc#
.	.	.	16b
.	.	.	16a
=53	=53	=53	=53
8BB]	2B	8dd]	2g#
8BB	.	8d	.
8BB	.	8d	.
8BB	.	8d	.
=54	=54	=54	=54
4C#	4A	4e	16g
.	.	.	16cc#
.	.	.	16ee
.	.	.	16dd
8r	8r	8r	16cc#
.	.	.	16b
8C#	8A	8e	16a
.	.	.	16g
=55	=55	=55	=55
4D	4A	4A	16f#
.	.	.	16a
.	.	.	16dd
.	.	.	16cc#
8r	8r	8r	16b
.	.	.	16a
8F#	8F#	8A	16g
.	.	.	16f#
=56	=56	=56	=56
4G	4G	8B	8e
.	.	8g	8b
4A	4A	8f#	8a
.	.	8e	8c#
=57	=57	=57	=57
4D	4D	4d	4d
4r	4r	8r	8r
.	.	16d	16f#
.	.	16e	16g
=58	=58	=58	=58
2r	2r	8f#	8a
.	.	8d	8f#
.	.	8e	8g
.	.	8f#	8a
=59	=59	=59	=59
4.r	4.r	4g	4b
.	.	4r	4r
16C#	16e	.	.
16D	16f#	.	.
=60	=60	=60	=60
8E	8g	2r	2r
8C#	8e	.	.
8D	8f#	.	.
8E	8g	.	.
=61	=61	=61	=61
4F#	4a	2r	4.r
4r	4r	.	.
.	.	.	8a
=62	=62	=62	=62
8D	8f#	8a	8dd
8D	8f#	8a	8dd
8D	8f#	8a	8dd
8D	8f#	8a	8dd
=63	=63	=63	=63
2E	2g	2a	8.cc#
.	.	.	16dd
.	.	.	8cc#
.	.	.	8a
=64	=64	=64	=64
8F#	8a	8a	8dd
8C#	8a	8a	8ee
8D	8a	8a	8ff#
8GG	8b	8ee	8gg
=65	=65	=65	=65
2AA	2a	4dd	4ff#
.	.	8cc#	8ee
.	.	8a	8a
=66	=66	=66	=66
8DD	8f#	8a	8dd
8D	8f#	8a	8dd
8D	8f#	8a	8dd
8D	[8f#	8a	8dd
=67	=67	=67	=67
2D#	2f#]	2a	8.cc
.	.	.	16dd
.	.	.	8cc
.	.	.	8a
=68	=68	=68	=68
4E	4e	8B	8g
.	.	4g	4ee
4AA#	4A#	.	.
.	.	8ee	8gg
=69	=69	=69	=69
4BB	4B	8ee	8gg
.	.	8dd#	8ff#
4r	4r	4r	8r
.	.	.	8bb
=70	=70	=70	=70
2r	2r	2r	8aa#
.	.	.	8bb
.	.	.	8gg
.	.	.	8ee
=71	=71	=71	=71
4B	4f#	4a	4dd#
8E	8e	8g	8ee
8r	8r	8r	8gg
=72	=72	=72	=72
2r	2r	2r	8ff#
.	.	.	8gg
.	.	.	8ee
.	.	.	8cc
=73	=73	=73	=73
4c	8g	4e	4a#
.	8e	.	.
8B	8f#	8d#	8b
8r	8r	8r	8ff#
=74	=74	=74	=74
4r	4r	4r	8ee#
.	.	.	8ff#
4B	4f#	4d#	8dd#
.	.	.	8a
=75	=75	=75	=75
4c	4e	8e	8g
.	.	4g	4ee
4G	4G	.	.
.	.	8b	8gg
=76	=76	=76	=76
4A	4A	8b	8gg
.	.	8a	8ff#
4B	4B	8g	8ee
.	.	8f#	8dd#
=77	=77	=77	=77
4E	4e	4e	4ee
4r	4r	8r	8r
.	.	16e	16g
.	.	16f#	16a
=78	=78	=78	=78
2r	2r	8g	8b
.	.	8e	8g
.	.	8f#	8a
.	.	8g	8b
=79	=79	=79	=79
2r	2r	4a	4cc
.	.	8r	8r
.	.	16f#	16a
.	.	16g	16b
=80	=80	=80	=80
2r	2r	8a	8cc
.	.	8f#	8a
.	.	8g	8b
.	.	8a	8cc
=81	=81	=81	=81
2r	2r	4b	4dd
.	.	4r	8r
.	.	.	8d
=82	=82	=82	=82
8G	8B	8d	8g
8G	8B	8d	8g
8G	8B	8d	8g
8G	8B	8d	8g
=83	=83	=83	=83
2A	2c	2d	8.f#
.	.	.	16g
.	.	.	8f#
.	.	.	8d
=84	=84	=84	=84
8B	8d	8d	8g
8F#	8d	8d	8a
8G	8d	8d	8b
8C	8e	8a	8cc
=85	=85	=85	=85
4D	[2d	4g	4b
4r	.	8f#	8a
.	.	8b	8dd
=86	=86	=86	=86
4D	2d_	4a	4cc
4r	.	8g	8b
.	.	8cc	8ee
=87	=87	=87	=87
4D	2d_	4b	4dd
4r	.	8a	8cc
.	.	8b	8gg
=88	=88	=88	=88
4D	2d_	8a	8ff#
.	.	8g	8ee
4r	.	8f#	8dd
.	.	8e	8cc#
=89	=89	=89	=89
4D	4d]	4d	8dd
.	.	.	4r
4r	4r	4r	.
.	.	.	8ddd
=90	=90	=90	=90
2r	2r	2r	8ccc#
.	.	.	8ddd
.	.	.	8bb
.	.	.	8aa
=91	=91	=91	=91
4E	4b	4dd	4gg#
8AA	8a	8cc	8aa
8r	8r	8r	8ccc
=92	=92	=92	=92
2r	2r	2r	8bb
.	.	.	8ccc
.	.	.	8aa
.	.	.	8ff#
=93	=93	=93	=93
2r	4.d	4.f#	8dd
.	.	.	8ccc
.	.	.	[4dd
.	8e	8g	.
=94	=94	=94	=94
2r	8f#	8a	8dd]
.	8g	8b-	8ee-
.	8f#	8a	8dd
.	8e	8g	8cc#
=95	=95	=95	=95
2r	4.d	4.f#	8dd
.	.	.	8ccc
.	.	.	[4dd
.	8e	8g	.
=96	=96	=96	=96
2r	8f#	8a	8dd]
.	8g	8b-	8ee-
.	8f#	8a	8dd
.	8e	8g	8cc#
=97	=97	=97	=97
2r	16f#	16a	16dd
.	16g	16b-	16ee-
.	16f#	16a	16dd
.	16e	16g	16cc#
.	16f#	16a	16dd
.	16g	16b-	16ee-
.	16f#	16a	16dd
.	16e	16g	16cc#
=98	=98	=98	=98
2r	16f#	16a	16dd
.	16g	16b-	16ee-
.	16f#	16a	16dd
.	16e	16g	16cc#
.	16f#	16a	16dd
.	16g	16b-	16ee-
.	16f#	16a	16dd
.	16e	16g	16cc#
=99	=99	=99	=99
2r	[2f#	[2a	4dd
.	.	.	[4ee-
=100	=100	=100	=100
2r	2f#_	2a_	4ee-]
.	.	.	4dd
=101	=101	=101	=101
16d	2f#_	2a_	[2cc
16e-	.	.	.
16d	.	.	.
16c#	.	.	.
16d	.	.	.
16e-	.	.	.
16d	.	.	.
16c#	.	.	.
=102	=102	=102	=102
16d	2f#_	2a_	2cc_
16e-	.	.	.
16d	.	.	.
16c#	.	.	.
16d	.	.	.
16e-	.	.	.
16d	.	.	.
16c#	.	.	.
=103	=103	=103	=103
4d	2f#_	2a_	2cc_
[4e-	.	.	.
=104	=104	=104	=104
4e-]	4f#]	4a]	4cc]
4c	4a	4f#	4ee-
=105	=105	=105	=105
4B	4b	4g	4dd
4r	4r	4r	8r
.	.	.	8d
=106	=106	=106	=106
8G	8B	8d	8g
8G	8B	8d	8g
8G	8B	8d	8g
8G	8B	8d	8g
=107	=107	=107	=107
2A	2c	2d	8.f#
.	.	.	16g
.	.	.	8f#
.	.	.	8d
=108	=108	=108	=108
8G	8B	8d	8g
8G	8B	8d	8g
8G	8B	8d	8g
8G	8B	8d	8g
=109	=109	=109	=109
4F#	4D	4a	32a
.	.	.	32b
.	.	.	8.cc
8r	8r	8r	8r
8G	8G	8d	8b
=110	=110	=110	=110
4C	4c	4c	4a
4D	4d	8B	8g
.	.	8A	8f#
=111	=111	=111	=111
4G	4G	4B	4g
4r	4r	4r	8r
.	.	.	8gg
=112	=112	=112	=112
2r	4r	4r	8ff#
.	.	.	8gg
.	[4g	4b	8ee
.	.	.	8dd
=113	=113	=113	=113
2r	8g]	4a	4cc#
.	8e	.	.
.	8f	8a	8dd
.	8r	8r	8ff
=114	=114	=114	=114
2r	4r	4r	8ee
.	.	.	8ff
.	[4f	4a	8dd
.	.	.	8cc
=115	=115	=115	=115
2r	8f]	4g	4b
.	8d	.	.
.	8e	8g	8cc
.	8r	8r	8ee
=116	=116	=116	=116
4r	4r	4r	8dd#
.	.	.	8ee
[4c	4c	4e	8cc
.	.	.	8a
=117	=117	=117	=117
8c]	4A	4.d	4f#
8A	.	.	.
8B	4G	.	8g
8BB	.	[8b	[8dd
=118	=118	=118	=118
4C	4c	8b]	8dd]
.	.	8a	8cc
4D	4d	8g	8b
.	.	8f#	8a
=119	=119	=119	=119
4GG	8G	4g	4g
.	8g	.	.
8r	4r	4r	4r
8g	.	.	.
=120	=120	=120	=120
8f#	4r	4r	4r
8g	.	.	.
8e	[4e	[4g	4b
8d	.	.	.
=121	=121	=121	=121
4c#	4e]	8g]	4a
.	.	8e	.
8d	8d	8f	8a
8f	8r	8r	8r
=122	=122	=122	=122
8e	4r	4r	4r
8f	.	.	.
8d	[4d	[4f	4a
8c	.	.	.
=123	=123	=123	=123
4B	4d]	8f]	4g
.	.	8d	.
8c	8c	8e	8g
8e	8r	8r	8r
=124	=124	=124	=124
8d#	4r	4r	4r
8e	.	.	.
8c	8cc	[4cc	[4ee
8A	8a	.	.
=125	=125	=125	=125
4F#	4f#	8cc]	8ee]
.	.	4ee	4ccc
4G	4g	.	.
.	.	[8dd	[8bb
=126	=126	=126	=126
4C	4c	8dd]	8bb]
.	.	8cc	8aa
4D	4d	8b	8gg
.	.	8a	8ff#
=127	=127	=127	=127
[2E	2B	[2g	16gg
.	.	.	16aa
.	.	.	16bb
.	.	.	16aa
.	.	.	16gg
.	.	.	16ff#
.	.	.	16ee
.	.	.	16dd
=128	=128	=128	=128
8E]	2e	8g]	2cc#
8E	.	8g	.
8E	.	8g	.
8E	.	8g	.
=129	=129	=129	=129
4F#	4d	4a	16cc
.	.	.	16ff#
.	.	.	16aa
.	.	.	16gg
8r	8r	8r	16ff#
.	.	.	16ee
8F#	8d	8a	16dd
.	.	.	16cc
=130	=130	=130	=130
4G	4d	4d	16b
.	.	.	16dd
.	.	.	16gg
.	.	.	16ff#
8r	8r	8r	16ee
.	.	.	16dd
8BB	8B	8d	16cc
.	.	.	16b
=131	=131	=131	=131
4C	4c	8e	8a
.	.	8cc	8ee
4D	4d	8b	8dd
.	.	8a	8f#
=132	=132	=132	=132
4GG	4G	4g	4g
4r	4r	8r	8r
.	.	16g	16b
.	.	16a	16cc
=133	=133	=133	=133
2r	2r	8b	8dd
.	.	8g	8b
.	.	8a	8cc
.	.	8b	8dd
=134	=134	=134	=134
4.r	4.r	4cc	4ee
.	.	4r	4r
16F#	16A	.	.
16G	16B	.	.
=135	=135	=135	=135
8A	8c	2r	2r
8F#	8A	.	.
8G	8B	.	.
8A	8c	.	.
=136	=136	=136	=136
4B	4d	2r	2r
4r	4r	.	.
=137	=137	=137	=137
2D	2A	2c	2f#
=138	=138	=138	=138
4GG	4G	4B	4g
4r	4r	4r	4r
==	==	==	==
*-	*-	*-	*-
!!!RWG1: This file contains only pitch and duration data.
!!!RWG2: Transposing instruments are not transposed.
!!!RWG3: Spines may have incompatible meters.
!!!RWG4: Durations of rests and tied notes may be interpreted.
!!!RWG: Key is interpreted using the Humdrum key tool.
!!!AFT: stage1
!!!END: 1997/04/15
!!!KEY: 3367946674
!!!EMD: Converted from MuseData to Humdrum Dec 16, 2000, by Andreas Kornstaedt using muse2kern.
!!!EMD: Manual editing by Craig Sapp, Nov 2001
